www/assets/icons/sports_mma.svg

<svg xmlns="http://www.w3.org/2000/svg" width="24" height="24" viewBox="0 0 24 24" fill='currentColor'><path d="M7 20c0 .55.45 1 1 1h8c.55 0 1-.45 1-1v-3H7zM18 7c-.55 0-1 .45-1 1V5c0-1.1-.9-2-2-2H7c-1.1 0-2 .9-2 2v5.8c0 .13.01.26.04.39l.8 4c.09.47.5.8.98.8h10.36c.45 0 .89-.36.98-.8l.8-4c.03-.13.04-.26.04-.39V8c0-.55-.45-1-1-1m-3 3H7V7h8z"/></svg>

<svg width="24" height="24" viewBox="0 0 24 24" xmlns="http://www.w3.org/2000/svg" fill='currentColor'><path d="M7 20C7 20.55 7.45 21 8 21H16C16.55 21 17 20.55 17 20V17H7V20Z"/><path d="M18 7C17.45 7 17 7.45 17 8V5C17 3.9 16.1 3 15 3H7C5.9 3 5 3.9 5 5V10.8C5 10.93 5.01 11.06 5.04 11.19L5.84 15.19C5.93 15.66 6.34 15.99 6.82 15.99H17.18C17.63 15.99 18.07 15.63 18.16 15.19L18.96 11.19C18.99 11.06 19 10.93 19 10.8V8C19 7.45 18.55 7 18 7ZM15 10H7V7H15V10Z"/></svg>
